svg/colored/f-3.svg

<svg xmlns="http://www.w3.org/2000/svg" viewBox="30 -115 580 830"><g>
<!--frame-->
<path d="M550 685h-460q-13 0 -21.5 -8.5t-8.5 -21.5v-710 q0 -13 8.5 -21.5t21.5 -8.5h460q13 0 21.5 8.5t8.5 21.5v710q0 13 -8.5 21.5t-21.5 8.5zM610 655v-710q0 -25 -17.5 -42.5t-42.5 -17.5h-460q-25 0 -42.5 17.5t-17.5 42.5v710q0 25 17.5 42.5t42.5 17.5h460q25 0 42.5 -17.5t17.5 -42.5z" />
<!--index-->
<path d="M413 518l14 -5l20 -3l16 -10l-3 -18l-33 -2l6 -6l21 -10l9 -10l-11 -11h-18l-19 30v11l25 9l-19 11zM427 605l-14 -18l20 -17l20 27l-7 11zM410 635l16 -5l8 -8h11l15 6l18 -16l8 -14l-13 -12l-22 -28l29 -23l50 -16l-19 -17l-24 -4l-53 43l-49 -36l-41 -6l38 26l37 34 l-19 19l-30 -15l-12 5l24 14l26 35l-8 6z" />
<!--flower-with-leave-->
<path d="M493 357q28 0 47 -16q-7 -21 -28 -37q12 -14 12 -52q-7 -1 -20 -1q-17 0 -26 4q-3 -8 -8 -15t-9 -10t-9.5 -6.5t-6.5 -4.5q-7 30 -12 37l-19 -10l-3 28l-5 5l-3 -3q-3 3 -13.5 7.5t-13.5 7.5q23 -112 23 -169q0 -52 -16 -167h-17 q10 117 10 153q0 50 -10 128.5t-10 81.5q0 13 10 20.5t24.5 12t18.5 7.5l2 -5l8 5q1 3 5.5 13t5.5 13q10 -4 18 -14q13 9 29 27q14 -10 16 -40zM424 344q-48 -11 -49 -24q0 -5 8.5 -12t22 -14t14.5 -8q0 9 7 30q-3 14 -3 28zM449 313q0 -27 12 -27q15 0 15 26 q0 15 -6.5 21t-13.5 0.5t-7 -20.5zM459 278q-2 0 -3.5 0.5t-3.5 1t-7.5 2t-14.5 3.5q-2 -7 -2 -18l12 6l11 -34q19 15 23 29q14 -6 37 -6q1 2 1 7q0 21 -16 37q19 11 28 31q-18 9 -29 9q-7 0 -11 -1q0 18 -8 34l-27 -26l-12 9q-3 -14 -2 -19q5 -1 13.5 0.5t10.5 1.5 q11 0 18 -9.5t7 -24.5q0 -13 -7 -23t-18 -10z" />
<!--leaves-->
<path d="M124 645q29 -41 51 -81.5t38 -73t29.5 -77t21 -73.5t16 -84t12.5 -86.5t13 -102.5t14 -112h-32q-20 122 -38 195t-32 107t-49 113t-68 165q62 -94 96.5 -159t57.5 -139q-17 102 -42.5 184t-87.5 224z" />
<path d="M226 581q50 -79 75 -170 t31.5 -162t13.5 -254q1 -26 2 -40h-21q-5 62 -11.5 149.5t-9 116.5t-8.5 79.5t-14.5 83.5t-22 80.5t-35.5 116.5z" />
</g></svg>

<svg xmlns="http://www.w3.org/2000/svg" viewBox="30 -115 580 830"><g>
<!--frame-->
<path d="M550 685h-460q-13 0 -21.5 -8.5t-8.5 -21.5v-710 q0 -13 8.5 -21.5t21.5 -8.5h460q13 0 21.5 8.5t8.5 21.5v710q0 13 -8.5 21.5t-21.5 8.5zM610 655v-710q0 -25 -17.5 -42.5t-42.5 -17.5h-460q-25 0 -42.5 17.5t-17.5 42.5v710q0 25 17.5 42.5t42.5 17.5h460q25 0 42.5 -17.5t17.5 -42.5z" />
<!--index-->
<path d="M413 518l14 -5l20 -3l16 -10l-3 -18l-33 -2l6 -6l21 -10l9 -10l-11 -11h-18l-19 30v11l25 9l-19 11zM427 605l-14 -18l20 -17l20 27l-7 11zM410 635l16 -5l8 -8h11l15 6l18 -16l8 -14l-13 -12l-22 -28l29 -23l50 -16l-19 -17l-24 -4l-53 43l-49 -36l-41 -6l38 26l37 34 l-19 19l-30 -15l-12 5l24 14l26 35l-8 6z" />
<!--flower-with-leave-->
<path d="M493 357Q521 357 540 341Q533 320 512 304Q524 290 524 252Q517 251 504 251Q487 251 478 255Q475 247 470 240T461 230T451.5 223.5T445 219Q438 249 433 256L414 246L411 274L406 279L403 276Q400 279 389.5 283.5T376 291Q399 179 399 122Q399 70 383 -45H366Q376 72 376 108Q376 158 366 236.5T356 318Q356 331 366 338.5T390.5 350.5T409 358L411 353L419 358Q420 361 424.5 371T430 384Q440 380 448 370Q461 379 477 397Q491 387 493 357ZM424 344Q376 333 375 320Q375 315 383.5 308T405.5 294T420 286Q420 295 427 316Q424 330 424 344ZM449 313Q449 286 461 286Q476 286 476 312Q476 327 469.5 333T456 333.5T449 313ZM459 278Q457 278 455.5 278.5T452 279.5T444.5 281.5T430 285Q428 278 428 267L440 273L451 239Q470 254 474 268Q488 262 511 262Q512 264 512 269Q512 290 496 306Q515 317 524 337Q506 346 495 346Q488 346 484 345Q484 363 476 379L449 353L437 362Q434 348 435 343Q440 342 448.5 343.5T459 345Q470 345 477 335.5T484 311Q484 298 477 288T459 278Z" />
<!--leaves-->
<path d="M124 645q29 -41 51 -81.5t38 -73t29.5 -77t21 -73.5t16 -84t12.5 -86.5t13 -102.5t14 -112h-32q-20 122 -38 195t-32 107t-49 113t-68 165q62 -94 96.5 -159t57.5 -139q-17 102 -42.5 184t-87.5 224z" />
<path d="M226 581q50 -79 75 -170 t31.5 -162t13.5 -254q1 -26 2 -40h-21q-5 62 -11.5 149.5t-9 116.5t-8.5 79.5t-14.5 83.5t-22 80.5t-35.5 116.5z" />
</g></svg>
